svgs/regular/lari-sign.svg

<svg xmlns="http://www.w3.org/2000/svg" viewBox="0 0 384 512"><!--! Font Awesome Pro 6.4.2 by @fontawesome - https://fontawesome.com License - https://fontawesome.com/license (Commercial License) Copyright 2023 Fonticons, Inc. --><path d="M144 32c13.3 0 24 10.7 24 24V97.5c7.9-1 15.9-1.5 24-1.5s16.1 .5 24 1.5V56c0-13.3 10.7-24 24-24s24 10.7 24 24v54c58.9 23.8 103.2 76 116.2 139.7c2.6 13-5.8 25.7-18.7 28.3s-25.7-5.8-28.3-18.7c-8.3-41-34-75.6-69.1-95.9V264c0 13.3-10.7 24-24 24s-24-10.7-24-24l0-118c-7.8-1.3-15.8-2-24-2s-16.2 .7-24 2l0 118c0 13.3-10.7 24-24 24s-24-10.7-24-24V163.3C77 188.2 48 234.7 48 288c0 79.5 64.5 144 144 144H360c13.3 0 24 10.7 24 24s-10.7 24-24 24H192 24c-13.3 0-24-10.7-24-24s10.7-24 24-24H65C25.1 396.8 0 345.3 0 288c0-80.6 49.6-149.6 120-178V56c0-13.3 10.7-24 24-24z"/></svg>

<svg xmlns="http://www.w3.org/2000/svg" viewBox="0 0 384 512"><!--! Font Awesome Pro 6.1.1 by @fontawesome - https://fontawesome.com License - https://fontawesome.com/license (Commercial License) Copyright 2022 Fonticons, Inc. --><path d="M144 32C157.3 32 168 42.75 168 56V97.49C175.9 96.5 183.9 96 192 96C200.1 96 208.1 96.5 216 97.49V56C216 42.75 226.7 32 240 32C253.3 32 264 42.75 264 56V109.1C322.9 133.8 367.2 185.1 380.2 249.6C382.8 262.6 374.4 275.3 361.4 277.9C348.4 280.6 335.8 272.2 333.1 259.2C324.8 218.2 299.1 183.6 264 163.3V264C264 277.3 253.3 288 240 288C226.7 288 216 277.3 216 264V145.1C208.2 144.7 200.2 144 192 144C183.8 144 175.8 144.7 168 145.1V264C168 277.3 157.3 288 144 288C130.7 288 120 277.3 120 264V163.3C76.96 188.2 48 234.7 48 288C48 367.5 112.5 432 192 432H360C373.3 432 384 442.7 384 456C384 469.3 373.3 480 360 480H24C10.75 480 0 469.3 0 456C0 442.7 10.75 432 24 432H65C25.14 396.8 0 345.3 0 288C0 207.4 49.64 138.4 120 109.1V56C120 42.75 130.7 32 144 32z"/></svg>
